Newaita-dark/.places-mint/22/folder-wine.svg

<?xml version="1.0" encoding="UTF-8"?>
<svg xmlns="http://www.w3.org/2000/svg" xmlns:xlink="http://www.w3.org/1999/xlink" width="22px" height="22px" viewBox="0 0 22 22" version="1.1">
<defs>
<linearGradient id="linear0" gradientUnits="userSpaceOnUse" x1="254" y1="233.5" x2="254" y2="254.666672" gradientTransform="matrix(0.0429729,0,0,0.0429729,-0.00000262285,9.239166)">
<stop offset="0" style="stop-color:rgb(0%,0%,0%);stop-opacity:0.27451;"/>
<stop offset="1" style="stop-color:rgb(0%,0%,0%);stop-opacity:0;"/>
</linearGradient>
<radialGradient id="radial0" gradientUnits="userSpaceOnUse" cx="450.908936" cy="189.579361" fx="450.908936" fy="189.579361" r="21.166656" gradientTransform="matrix(0.000000119742,-0.0537161,-0.0966889,-0.0000000698078,37.204209,43.721792)">
<stop offset="0" style="stop-color:rgb(0%,0%,0%);stop-opacity:0.313726;"/>
<stop offset="0.222222" style="stop-color:rgb(0%,0%,0%);stop-opacity:0.27451;"/>
<stop offset="1" style="stop-color:rgb(0%,0%,0%);stop-opacity:0;"/>
</radialGradient>
<radialGradient id="radial1" gradientUnits="userSpaceOnUse" cx="450.908936" cy="189.579361" fx="450.908936" fy="189.579361" r="21.166656" gradientTransform="matrix(-0.000000119742,0.0537161,0.0966889,0.0000000698078,-15.373997,-5.17514)">
<stop offset="0" style="stop-color:rgb(0%,0%,0%);stop-opacity:0.313726;"/>
<stop offset="0.222222" style="stop-color:rgb(0%,0%,0%);stop-opacity:0.27451;"/>
<stop offset="1" style="stop-color:rgb(0%,0%,0%);stop-opacity:0;"/>
</radialGradient>
<radialGradient id="radial2" gradientUnits="userSpaceOnUse" cx="450.908936" cy="189.579361" fx="450.908936" fy="189.579361" r="21.166656" gradientTransform="matrix(-0.000000119742,-0.0537161,0.0966889,-0.0000000698078,-15.373997,43.721792)">
<stop offset="0" style="stop-color:rgb(0%,0%,0%);stop-opacity:0.313726;"/>
<stop offset="0.222222" style="stop-color:rgb(0%,0%,0%);stop-opacity:0.27451;"/>
<stop offset="1" style="stop-color:rgb(0%,0%,0%);stop-opacity:0;"/>
</radialGradient>
<radialGradient id="radial3" gradientUnits="userSpaceOnUse" cx="450.908936" cy="189.579361" fx="450.908936" fy="189.579361" r="21.166656" gradientTransform="matrix(0.000000119742,0.0537161,-0.0966889,0.0000000698078,37.204207,-5.175141)">
<stop offset="0" style="stop-color:rgb(0%,0%,0%);stop-opacity:0.313726;"/>
<stop offset="0.222222" style="stop-color:rgb(0%,0%,0%);stop-opacity:0.27451;"/>
<stop offset="1" style="stop-color:rgb(0%,0%,0%);stop-opacity:0;"/>
</radialGradient>
<linearGradient id="linear1" gradientUnits="userSpaceOnUse" x1="254" y1="-147.5" x2="254" y2="-31.083334" gradientTransform="matrix(0.0429729,0,0,0.0429729,0.000000859205,9.239162)">
<stop offset="0" style="stop-color:rgb(64.313728%,64.313728%,64.313728%);stop-opacity:0;"/>
<stop offset="1" style="stop-color:rgb(100%,100%,100%);stop-opacity:0.196078;"/>
</linearGradient>
<linearGradient id="linear2" gradientUnits="userSpaceOnUse" x1="254" y1="233.5" x2="254" y2="-105.166656" gradientTransform="matrix(0.0429729,0,0,0.0429729,-0.00000124602,9.239163)">
<stop offset="0" style="stop-color:rgb(34.509805%,34.509805%,34.509805%);stop-opacity:0;"/>
<stop offset="1" style="stop-color:rgb(98.039216%,98.039216%,98.039216%);stop-opacity:0.196078;"/>
</linearGradient>
</defs>
<g id="surface1">
<path style=" stroke:none;fill-rule:nonzero;fill:url(#linear0);" d="M 2.730469 19.273438 L 19.101562 19.273438 L 19.101562 20.183594 L 2.730469 20.183594 Z M 2.730469 19.273438 "/>
<path style=" stroke:none;fill-rule:nonzero;fill:url(#radial0);" d="M 19.101562 19.273438 L 20.921875 19.273438 L 20.921875 18.363281 L 19.101562 18.363281 Z M 19.101562 19.273438 "/>
<path style=" stroke:none;fill-rule:nonzero;fill:url(#radial1);" d="M 2.730469 19.273438 L 0.910156 19.273438 L 0.910156 20.183594 L 2.730469 20.183594 Z M 2.730469 19.273438 "/>
<path style=" stroke:none;fill-rule:nonzero;fill:url(#radial2);" d="M 2.730469 19.273438 L 0.910156 19.273438 L 0.910156 18.363281 L 2.730469 18.363281 Z M 2.730469 19.273438 "/>
<path style=" stroke:none;fill-rule:nonzero;fill:url(#radial3);" d="M 19.101562 19.273438 L 20.921875 19.273438 L 20.921875 20.183594 L 19.101562 20.183594 Z M 19.101562 19.273438 "/>
<path style=" stroke:none;fill-rule:nonzero;fill:rgb(61.176473%,80.000001%,39.607844%);fill-opacity:1;" d="M 5.003906 2.902344 L 19.785156 2.902344 C 20.285156 2.902344 20.691406 3.308594 20.691406 3.808594 L 20.691406 7.222656 C 20.691406 7.722656 20.285156 8.128906 19.785156 8.128906 L 5.003906 8.128906 C 4.5 8.128906 4.09375 7.722656 4.09375 7.222656 L 4.09375 3.808594 C 4.09375 3.308594 4.5 2.902344 5.003906 2.902344 Z M 5.003906 2.902344 "/>
<path style=" stroke:none;fill-rule:nonzero;fill:url(#linear1);" d="M 5.003906 2.902344 L 19.785156 2.902344 C 20.285156 2.902344 20.691406 3.308594 20.691406 3.808594 L 20.691406 7.222656 C 20.691406 7.722656 20.285156 8.128906 19.785156 8.128906 L 5.003906 8.128906 C 4.5 8.128906 4.09375 7.722656 4.09375 7.222656 L 4.09375 3.808594 C 4.09375 3.308594 4.5 2.902344 5.003906 2.902344 Z M 5.003906 2.902344 "/>
<path style=" stroke:none;fill-rule:nonzero;fill:rgb(100%,100%,100%);fill-opacity:0.392157;" d="M 5.003906 2.957031 C 4.5 2.957031 4.09375 3.363281 4.09375 3.867188 L 4.09375 3.980469 C 4.09375 3.476562 4.5 3.070312 5.003906 3.070312 L 19.785156 3.070312 C 20.289062 3.070312 20.691406 3.476562 20.691406 3.980469 L 20.691406 3.867188 C 20.691406 3.363281 20.289062 2.957031 19.785156 2.957031 Z M 5.003906 2.957031 "/>
<path style=" stroke:none;fill-rule:nonzero;fill:rgb(12.941177%,12.941177%,12.941177%);fill-opacity:1;" d="M 5.003906 2.835938 C 4.464844 2.835938 4.027344 3.273438 4.027344 3.808594 L 4.027344 7.222656 C 4.027344 7.757812 4.464844 8.195312 5.003906 8.195312 L 19.785156 8.195312 C 20.320312 8.195312 20.757812 7.757812 20.757812 7.222656 L 20.757812 3.808594 C 20.757812 3.273438 20.320312 2.835938 19.785156 2.835938 Z M 5.003906 2.964844 L 19.785156 2.964844 C 20.253906 2.964844 20.628906 3.339844 20.628906 3.808594 L 20.628906 7.222656 C 20.628906 7.691406 20.253906 8.066406 19.785156 8.066406 L 5.003906 8.066406 C 4.535156 8.066406 4.15625 7.691406 4.15625 7.222656 L 4.15625 3.808594 C 4.15625 3.339844 4.535156 2.964844 5.003906 2.964844 Z M 5.003906 2.964844 "/>
<path style=" stroke:none;fill-rule:nonzero;fill:rgb(68.235296%,83.529413%,50.588238%);fill-opacity:1;" d="M 1.820312 4.71875 C 1.316406 4.71875 0.910156 5.125 0.910156 5.628906 L 0.910156 18.363281 C 0.910156 18.867188 1.316406 19.273438 1.820312 19.273438 L 20.011719 19.273438 C 20.515625 19.273438 20.921875 18.867188 20.921875 18.363281 L 20.921875 6.992188 L 8.640625 6.992188 C 8.136719 6.992188 7.730469 6.589844 7.730469 6.085938 L 7.730469 4.71875 Z M 1.820312 4.71875 "/>
<path style=" stroke:none;fill-rule:nonzero;fill:url(#linear2);" d="M 1.820312 4.71875 C 1.316406 4.71875 0.910156 5.125 0.910156 5.628906 L 0.910156 18.363281 C 0.910156 18.867188 1.316406 19.273438 1.820312 19.273438 L 20.011719 19.273438 C 20.515625 19.273438 20.921875 18.867188 20.921875 18.363281 L 20.921875 6.992188 L 8.640625 6.992188 C 8.136719 6.992188 7.730469 6.589844 7.730469 6.085938 L 7.730469 4.71875 Z M 1.820312 4.71875 "/>
<path style=" stroke:none;fill-rule:nonzero;fill:rgb(0%,0%,0%);fill-opacity:0.196078;" d="M 1.820312 19.273438 C 1.316406 19.273438 0.910156 18.867188 0.910156 18.363281 L 0.910156 18.25 C 0.910156 18.753906 1.316406 19.160156 1.820312 19.160156 L 20.011719 19.160156 C 20.515625 19.160156 20.921875 18.753906 20.921875 18.25 L 20.921875 18.363281 C 20.921875 18.867188 20.515625 19.273438 20.011719 19.273438 Z M 1.820312 19.273438 "/>
<path style=" stroke:none;fill-rule:nonzero;fill:rgb(100%,100%,100%);fill-opacity:0.392157;" d="M 8.585938 7.109375 C 8.082031 7.109375 7.675781 6.703125 7.675781 6.199219 L 7.675781 6.085938 C 7.675781 6.589844 8.082031 6.996094 8.585938 6.992188 L 20.921875 6.992188 L 20.921875 7.109375 Z M 8.585938 7.109375 "/>
<path style=" stroke:none;fill-rule:nonzero;fill:rgb(100%,100%,100%);fill-opacity:0.392157;" d="M 1.820312 4.777344 C 1.316406 4.777344 0.910156 5.183594 0.910156 5.6875 L 0.910156 5.800781 C 0.910156 5.296875 1.316406 4.890625 1.820312 4.890625 L 7.730469 4.890625 L 7.730469 4.777344 Z M 1.820312 4.777344 "/>
<path style=" stroke:none;fill-rule:nonzero;fill:rgb(12.941177%,12.941177%,12.941177%);fill-opacity:1;" d="M 1.820312 4.65625 C 1.28125 4.65625 0.84375 5.089844 0.84375 5.628906 L 0.84375 18.363281 C 0.84375 18.902344 1.28125 19.335938 1.820312 19.335938 L 20.011719 19.335938 C 20.550781 19.335938 20.984375 18.902344 20.984375 18.363281 L 20.984375 6.863281 L 8.640625 6.863281 C 8.171875 6.863281 7.796875 6.488281 7.796875 6.019531 L 7.796875 4.65625 Z M 1.820312 4.785156 L 7.667969 4.785156 L 7.667969 6.019531 C 7.667969 6.558594 8.101562 6.992188 8.640625 6.992188 L 20.855469 6.992188 L 20.855469 18.363281 C 20.855469 18.832031 20.480469 19.207031 20.011719 19.207031 L 1.820312 19.207031 C 1.351562 19.207031 0.972656 18.832031 0.972656 18.363281 L 0.972656 5.628906 C 0.972656 5.160156 1.351562 4.785156 1.820312 4.785156 Z M 1.820312 4.785156 "/>
<path style=" stroke:none;fill-rule:nonzero;fill:rgb(54.509807%,76.47059%,29.019609%);fill-opacity:1;" d="M 8.1875 9.269531 C 7.933594 9.269531 7.730469 9.46875 7.730469 9.722656 L 7.730469 11.542969 C 7.730469 11.792969 7.933594 11.996094 8.1875 11.996094 L 10.003906 11.996094 C 10.257812 11.996094 10.460938 11.792969 10.460938 11.542969 L 10.460938 9.722656 C 10.460938 9.46875 10.257812 9.269531 10.003906 9.269531 Z M 11.824219 9.269531 C 11.574219 9.269531 11.371094 9.46875 11.371094 9.722656 L 11.371094 11.542969 C 11.371094 11.792969 11.574219 11.996094 11.824219 11.996094 L 13.644531 11.996094 C 13.894531 11.996094 14.097656 11.792969 14.097656 11.542969 L 14.097656 9.722656 C 14.097656 9.46875 13.894531 9.269531 13.644531 9.269531 Z M 8.1875 12.90625 C 7.933594 12.90625 7.730469 13.109375 7.730469 13.359375 L 7.730469 15.179688 C 7.730469 15.433594 7.933594 15.636719 8.1875 15.636719 L 10.003906 15.636719 C 10.257812 15.636719 10.460938 15.433594 10.460938 15.179688 L 10.460938 13.359375 C 10.460938 13.109375 10.257812 12.90625 10.003906 12.90625 Z M 11.824219 12.90625 C 11.574219 12.90625 11.371094 13.109375 11.371094 13.359375 L 11.371094 15.179688 C 11.371094 15.433594 11.574219 15.636719 11.824219 15.636719 L 13.644531 15.636719 C 13.894531 15.636719 14.097656 15.433594 14.097656 15.179688 L 14.097656 13.359375 C 14.097656 13.109375 13.894531 12.90625 13.644531 12.90625 Z M 11.824219 12.90625 "/>
<path style=" stroke:none;fill-rule:nonzero;fill:rgb(0%,0%,0%);fill-opacity:0.235294;" d="M 8.1875 9.269531 C 7.933594 9.269531 7.730469 9.46875 7.730469 9.722656 L 7.730469 9.894531 C 7.730469 9.640625 7.933594 9.4375 8.1875 9.4375 L 10.003906 9.4375 C 10.257812 9.4375 10.460938 9.640625 10.460938 9.894531 L 10.460938 9.722656 C 10.460938 9.46875 10.257812 9.269531 10.003906 9.269531 Z M 11.824219 9.269531 C 11.574219 9.269531 11.371094 9.46875 11.371094 9.722656 L 11.371094 9.894531 C 11.371094 9.640625 11.574219 9.4375 11.824219 9.4375 L 13.644531 9.4375 C 13.894531 9.4375 14.097656 9.640625 14.097656 9.894531 L 14.097656 9.722656 C 14.097656 9.46875 13.894531 9.269531 13.644531 9.269531 Z M 8.1875 12.90625 C 7.933594 12.90625 7.730469 13.109375 7.730469 13.359375 L 7.730469 13.53125 C 7.730469 13.28125 7.933594 13.078125 8.1875 13.078125 L 10.003906 13.078125 C 10.257812 13.078125 10.460938 13.28125 10.460938 13.53125 L 10.460938 13.359375 C 10.460938 13.109375 10.257812 12.90625 10.003906 12.90625 Z M 11.824219 12.90625 C 11.574219 12.90625 11.371094 13.109375 11.371094 13.359375 L 11.371094 13.53125 C 11.371094 13.28125 11.574219 13.078125 11.824219 13.078125 L 13.644531 13.078125 C 13.894531 13.078125 14.097656 13.28125 14.097656 13.53125 L 14.097656 13.359375 C 14.097656 13.109375 13.894531 12.90625 13.644531 12.90625 Z M 11.824219 12.90625 "/>
<path style=" stroke:none;fill-rule:nonzero;fill:rgb(100%,100%,100%);fill-opacity:0.392157;" d="M 7.730469 11.542969 L 7.730469 11.710938 C 7.730469 11.964844 7.933594 12.167969 8.1875 12.167969 L 10.003906 12.167969 C 10.257812 12.167969 10.460938 11.964844 10.460938 11.710938 L 10.460938 11.542969 C 10.460938 11.792969 10.257812 11.996094 10.003906 11.996094 L 8.1875 11.996094 C 7.933594 11.996094 7.730469 11.792969 7.730469 11.542969 Z M 11.371094 11.542969 L 11.371094 11.710938 C 11.371094 11.964844 11.574219 12.167969 11.824219 12.167969 L 13.644531 12.167969 C 13.894531 12.167969 14.097656 11.964844 14.097656 11.710938 L 14.097656 11.542969 C 14.097656 11.792969 13.894531 11.996094 13.644531 11.996094 L 11.824219 11.996094 C 11.574219 11.996094 11.371094 11.792969 11.371094 11.542969 Z M 7.730469 15.179688 L 7.730469 15.351562 C 7.730469 15.601562 7.933594 15.804688 8.1875 15.804688 L 10.003906 15.804688 C 10.257812 15.804688 10.460938 15.601562 10.460938 15.351562 L 10.460938 15.179688 C 10.460938 15.433594 10.257812 15.636719 10.003906 15.636719 L 8.1875 15.636719 C 7.933594 15.636719 7.730469 15.433594 7.730469 15.179688 Z M 11.371094 15.179688 L 11.371094 15.351562 C 11.371094 15.601562 11.574219 15.804688 11.824219 15.804688 L 13.644531 15.804688 C 13.894531 15.804688 14.097656 15.601562 14.097656 15.351562 L 14.097656 15.179688 C 14.097656 15.433594 13.894531 15.636719 13.644531 15.636719 L 11.824219 15.636719 C 11.574219 15.636719 11.371094 15.433594 11.371094 15.179688 Z M 11.371094 15.179688 "/>
<path style=" stroke:none;fill-rule:nonzero;fill:rgb(12.941177%,12.941177%,12.941177%);fill-opacity:1;" d="M 8.1875 9.203125 C 7.898438 9.203125 7.667969 9.4375 7.667969 9.722656 L 7.667969 11.542969 C 7.667969 11.828125 7.898438 12.0625 8.1875 12.0625 L 10.003906 12.0625 C 10.292969 12.0625 10.523438 11.828125 10.523438 11.542969 L 10.523438 9.722656 C 10.523438 9.4375 10.292969 9.203125 10.003906 9.203125 Z M 11.824219 9.203125 C 11.539062 9.203125 11.304688 9.4375 11.304688 9.722656 L 11.304688 11.542969 C 11.304688 11.828125 11.539062 12.0625 11.824219 12.0625 L 13.644531 12.0625 C 13.929688 12.0625 14.164062 11.828125 14.164062 11.542969 L 14.164062 9.722656 C 14.164062 9.4375 13.929688 9.203125 13.644531 9.203125 Z M 8.1875 9.332031 L 10.003906 9.332031 C 10.222656 9.332031 10.394531 9.503906 10.394531 9.722656 L 10.394531 11.542969 C 10.394531 11.757812 10.222656 11.933594 10.003906 11.933594 L 8.1875 11.933594 C 7.96875 11.933594 7.796875 11.757812 7.796875 11.542969 L 7.796875 9.722656 C 7.796875 9.503906 7.96875 9.332031 8.1875 9.332031 Z M 11.824219 9.332031 L 13.644531 9.332031 C 13.859375 9.332031 14.035156 9.503906 14.035156 9.722656 L 14.035156 11.542969 C 14.035156 11.757812 13.859375 11.933594 13.644531 11.933594 L 11.824219 11.933594 C 11.605469 11.933594 11.433594 11.757812 11.433594 11.542969 L 11.433594 9.722656 C 11.433594 9.503906 11.605469 9.332031 11.824219 9.332031 Z M 8.1875 12.839844 C 7.898438 12.839844 7.667969 13.074219 7.667969 13.359375 L 7.667969 15.179688 C 7.667969 15.464844 7.898438 15.699219 8.1875 15.699219 L 10.003906 15.699219 C 10.292969 15.699219 10.523438 15.464844 10.523438 15.179688 L 10.523438 13.359375 C 10.523438 13.074219 10.292969 12.839844 10.003906 12.839844 Z M 11.824219 12.839844 C 11.539062 12.839844 11.304688 13.074219 11.304688 13.359375 L 11.304688 15.179688 C 11.304688 15.464844 11.539062 15.699219 11.824219 15.699219 L 13.644531 15.699219 C 13.929688 15.699219 14.164062 15.464844 14.164062 15.179688 L 14.164062 13.359375 C 14.164062 13.074219 13.929688 12.839844 13.644531 12.839844 Z M 8.1875 12.96875 L 10.003906 12.96875 C 10.222656 12.96875 10.394531 13.144531 10.394531 13.359375 L 10.394531 15.179688 C 10.394531 15.398438 10.222656 15.570312 10.003906 15.570312 L 8.1875 15.570312 C 7.96875 15.570312 7.796875 15.398438 7.796875 15.179688 L 7.796875 13.359375 C 7.796875 13.144531 7.96875 12.96875 8.1875 12.96875 Z M 11.824219 12.96875 L 13.644531 12.96875 C 13.859375 12.96875 14.035156 13.144531 14.035156 13.359375 L 14.035156 15.179688 C 14.035156 15.398438 13.859375 15.570312 13.644531 15.570312 L 11.824219 15.570312 C 11.605469 15.570312 11.433594 15.398438 11.433594 15.179688 L 11.433594 13.359375 C 11.433594 13.144531 11.605469 12.96875 11.824219 12.96875 Z M 11.824219 12.96875 "/>
</g>
</svg>

<svg xmlns="http://www.w3.org/2000/svg" width="22" height="22"><defs><linearGradient id="a" gradientUnits="userSpaceOnUse" x1="254" y1="233.5" x2="254" y2="254.667" gradientTransform="matrix(.04297 0 0 .04297 0 9.24)"><stop offset="0" stop-opacity=".275"/><stop offset="1" stop-opacity="0"/></linearGradient><radialGradient id="b" gradientUnits="userSpaceOnUse" cx="450.909" cy="189.579" fx="450.909" fy="189.579" r="21.167" gradientTransform="matrix(0 -.05372 -.09669 0 37.204 43.722)"><stop offset="0" stop-opacity=".314"/><stop offset=".222" stop-opacity=".275"/><stop offset="1" stop-opacity="0"/></radialGradient><radialGradient id="c" gradientUnits="userSpaceOnUse" cx="450.909" cy="189.579" fx="450.909" fy="189.579" r="21.167" gradientTransform="matrix(0 .05372 .09669 0 -15.374 -5.175)"><stop offset="0" stop-opacity=".314"/><stop offset=".222" stop-opacity=".275"/><stop offset="1" stop-opacity="0"/></radialGradient><radialGradient id="d" gradientUnits="userSpaceOnUse" cx="450.909" cy="189.579" fx="450.909" fy="189.579" r="21.167" gradientTransform="matrix(0 -.05372 .09669 0 -15.374 43.722)"><stop offset="0" stop-opacity=".314"/><stop offset=".222" stop-opacity=".275"/><stop offset="1" stop-opacity="0"/></radialGradient><radialGradient id="e" gradientUnits="userSpaceOnUse" cx="450.909" cy="189.579" fx="450.909" fy="189.579" r="21.167" gradientTransform="matrix(0 .05372 -.09669 0 37.204 -5.175)"><stop offset="0" stop-opacity=".314"/><stop offset=".222" stop-opacity=".275"/><stop offset="1" stop-opacity="0"/></radialGradient><linearGradient id="f" gradientUnits="userSpaceOnUse" x1="254" y1="-147.5" x2="254" y2="-31.083" gradientTransform="matrix(.04297 0 0 .04297 0 9.24)"><stop offset="0" stop-color="#a4a4a4" stop-opacity="0"/><stop offset="1" stop-color="#fff" stop-opacity=".196"/></linearGradient><linearGradient id="g" gradientUnits="userSpaceOnUse" x1="254" y1="233.5" x2="254" y2="-105.167" gradientTransform="matrix(.04297 0 0 .04297 0 9.24)"><stop offset="0" stop-color="#585858" stop-opacity="0"/><stop offset="1" stop-color="#fafafa" stop-opacity=".196"/></linearGradient><linearGradient id="h" gradientUnits="userSpaceOnUse" x1="254" y1="-147.5" x2="254" y2="233.5" gradientTransform="matrix(.04297 0 0 .04297 0 9.24)"><stop offset="0" stop-color="#a4a4a4" stop-opacity="0"/><stop offset="1" stop-color="#fff" stop-opacity=".196"/></linearGradient></defs><path d="M2.73 19.273h16.372v.91H2.73zm0 0" fill="url(#a)"/><path d="M19.102 19.273h1.82v-.91h-1.82zm0 0" fill="url(#b)"/><path d="M2.73 19.273H.91v.91h1.82zm0 0" fill="url(#c)"/><path d="M2.73 19.273H.91v-.91h1.82zm0 0" fill="url(#d)"/><path d="M19.102 19.273h1.82v.91h-1.82zm0 0" fill="url(#e)"/><path d="M5.004 2.902h14.781c.5 0 .906.407.906.907v3.414c0 .5-.406.906-.906.906H5.004a.908.908 0 0 1-.91-.906V3.809c0-.5.406-.907.91-.907zm0 0" fill="#7cb342"/><path d="M5.004 2.902h14.781c.5 0 .906.407.906.907v3.414c0 .5-.406.906-.906.906H5.004a.908.908 0 0 1-.91-.906V3.809c0-.5.406-.907.91-.907zm0 0" fill="url(#f)"/><path d="M5.004 2.902a.905.905 0 0 0-.91.907v.117c0-.504.406-.91.91-.91h14.781c.504 0 .906.406.906.91v-.117a.902.902 0 0 0-.906-.907zm0 0" fill="#e6e6e6" fill-opacity=".588"/><path d="M5.004 2.836a.976.976 0 0 0-.977.973v3.414c0 .535.438.972.977.972h14.781a.975.975 0 0 0 .973-.972V3.809a.975.975 0 0 0-.973-.973zm0 .129h14.781a.84.84 0 0 1 .844.844v3.414a.84.84 0 0 1-.844.843H5.004a.844.844 0 0 1-.848-.843V3.809c0-.47.38-.844.848-.844zm0 0" fill="#212121"/><path d="M1.82 4.719a.909.909 0 0 0-.91.91v12.734c0 .504.406.91.91.91h18.192c.504 0 .91-.406.91-.91V6.993H8.64a.905.905 0 0 1-.91-.907V4.719zm0 0" fill="#9ccc65"/><path d="M1.82 4.719a.909.909 0 0 0-.91.91v12.734c0 .504.406.91.91.91h18.192c.504 0 .91-.406.91-.91V6.993H8.64a.905.905 0 0 1-.91-.907V4.719zm0 0" fill="url(#g)"/><path d="M1.82 19.273a.909.909 0 0 1-.91-.91v-.113c0 .504.406.91.91.91h18.192c.504 0 .91-.406.91-.91v.113c0 .504-.406.91-.91.91zm0 0" fill-opacity=".196"/><path d="M1.82 4.719a.909.909 0 0 0-.91.91v.113c0-.504.406-.91.91-.91h5.91v-.113zm0 0M8.586 7.05a.909.909 0 0 1-.91-.91v-.113c0 .504.406.91.91.91h12.336v.114zm0 0" fill="#e6e6e6" fill-opacity=".937"/><path d="M1.82 4.656a.974.974 0 0 0-.976.973v12.734c0 .54.437.973.976.973h18.192a.97.97 0 0 0 .972-.973v-11.5H8.641a.84.84 0 0 1-.844-.843V4.656zm0 .13h5.848V6.02c0 .539.434.972.973.972h12.214v11.371a.84.84 0 0 1-.843.844H1.82a.844.844 0 0 1-.847-.844V5.63c0-.469.379-.844.847-.844zm0 0" fill="#212121"/><path d="M8.188 9.27c-.254 0-.458.199-.458.453v1.82c0 .25.204.453.457.453h1.817a.454.454 0 0 0 .457-.453v-1.82a.452.452 0 0 0-.457-.453zm3.636 0c-.25 0-.453.199-.453.453v1.82c0 .25.203.453.453.453h1.82c.25 0 .454-.203.454-.453v-1.82a.451.451 0 0 0-.453-.453zm-3.636 3.636a.454.454 0 0 0-.458.453v1.82c0 .255.204.458.457.458h1.817a.455.455 0 0 0 .457-.457v-1.82a.454.454 0 0 0-.457-.454zm3.636 0a.453.453 0 0 0-.453.453v1.82c0 .255.203.458.453.458h1.82c.25 0 .454-.203.454-.457v-1.82a.453.453 0 0 0-.453-.454zm0 0" fill="#7cb342"/><path d="M8.188 9.27c-.254 0-.458.199-.458.453v1.82c0 .25.204.453.457.453h1.817a.454.454 0 0 0 .457-.453v-1.82a.452.452 0 0 0-.457-.453zm3.636 0c-.25 0-.453.199-.453.453v1.82c0 .25.203.453.453.453h1.82c.25 0 .454-.203.454-.453v-1.82a.451.451 0 0 0-.453-.453zm-3.636 3.636a.454.454 0 0 0-.458.453v1.82c0 .255.204.458.457.458h1.817a.455.455 0 0 0 .457-.457v-1.82a.454.454 0 0 0-.457-.454zm3.636 0a.453.453 0 0 0-.453.453v1.82c0 .255.203.458.453.458h1.82c.25 0 .454-.203.454-.457v-1.82a.453.453 0 0 0-.453-.454zm0 0" fill="url(#h)"/><path d="M8.188 9.203a.52.52 0 0 0-.52.52v1.82c0 .285.23.52.52.52h1.816a.52.52 0 0 0 .52-.52v-1.82a.52.52 0 0 0-.52-.52zm3.636 0a.522.522 0 0 0-.52.52v1.82c0 .285.235.52.52.52h1.82c.286 0 .52-.235.52-.52v-1.82a.522.522 0 0 0-.52-.52zm-3.636.129h1.816c.219 0 .39.172.39.39v1.821a.39.39 0 0 1-.39.39H8.188a.39.39 0 0 1-.391-.39v-1.82c0-.22.172-.391.39-.391zm3.636 0h1.82a.39.39 0 0 1 .391.39v1.821c0 .215-.176.39-.39.39h-1.82a.39.39 0 0 1-.391-.39v-1.82c0-.22.171-.391.39-.391zM8.188 12.84a.52.52 0 0 0-.52.52v1.82c0 .285.23.52.52.52h1.816a.52.52 0 0 0 .52-.52v-1.82a.52.52 0 0 0-.52-.52zm3.636 0a.522.522 0 0 0-.52.52v1.82c0 .285.235.52.52.52h1.82c.286 0 .52-.235.52-.52v-1.82a.522.522 0 0 0-.52-.52zm-3.636.129h1.816a.39.39 0 0 1 .39.39v1.82c0 .22-.171.391-.39.391H8.188a.387.387 0 0 1-.391-.39v-1.82a.39.39 0 0 1 .39-.391zm3.636 0h1.82c.215 0 .391.176.391.39v1.82a.39.39 0 0 1-.39.391h-1.82a.387.387 0 0 1-.391-.39v-1.82a.39.39 0 0 1 .39-.391zm0 0" fill="#212121"/></svg>
